X: 4438
T: Bonnie Dainty Davie
R: reel
M: 4/4
K: Gmajor
dBAB G2 G2|G2 BG dGBG|BcBA GEED|E2 ed e2:|
g2 g2 fgag|fd d2 fgag|efge agfd|1 egfd e2:|2 egfd g2||

